!!!SOCIAL_FUNCTION:	miscellaneous songs
!!!PDT:	1957
!!!OTL: No_17_Hunting_Song.krn
!!!LING_GROUP: Keresan
!!!LANG: Tone
!!!REG: Southwest
**kern
*staff1
=1-
*clefF4
*k[f#c#g#]
*M2/4
16A\LL
16E\J
8E\J
8E\L
8E\J
=2
16A\LL
16E\J
8E\J
8E\L
8E\J
=3
8E\L
8E\J
8E\L
8E\J
=4!|:
*M3/4
4e\
8e\L
16e\L
16c#\JJ
8A\L
16A\Jk
16r
=5
*M2/4
4e\
16e\LL
16e\J
8f#\J
=6
*M5/8
8e\L
8e\
8B\
8B\
8B\J
=7
*M3/8
16A\LL
16F#\
16A\
16F#\
16E\
16E\JJ
=8
*M2/4
8B\L
16B\L
16B\JJ
8B\L
8A\J
=9
*M3/4
8A\L
8A\J
8E\L
8E\J
8E\
8r
=10
*M5/8
8e\L
8e\J
4e\
8B\
=11
*M3/8
4e\
16e\LL
16c#\JJ
=12
8A\L
8A\
8A\J
=13
*M2/4
8e\L
8e\J
8e\L
8e\J
=14
16e\LL
16B\
16B\
16B\JJ
16B\LL
16A\
16A\
16A\JJ
=15
8.B\L
16B\Jk
8.A\L
16B\Jk
=16
*M3/4
12B\L
12A\
12A\J
8E\L
8E\J
8E\
8r
=17
8B\L
16B\L
16A\JJ
8B\L
8A\J
8A\L
8A\J
=18
*M2/4
8E\L
8E\J
8E\L
8E\J
=19
*M3/4
8A\L
8A\J
8E\L
8A\J
8E\L
8E\J
=20
*M2/4
16F#\LL
16E\J
8E\J
8E\
8r
=21
*M3/4
16F#\LL
16E\J
8E\J
8E\L
8E\J
8E\L
8E\J
=22:|!
*M2/4
8C#\L
16E\L
16E\JJ
8E\L
8E\J
=23
4E\
8e\L
8e\J
=24!|:
4g#\
8.f#\L
16e\Jk
=25
16f#\LL
16e\J
8e\J
16e\LL
16c#\
16c#\
16B\JJ
=26
*M3/4
16c#\LL
16A\J
8A\J
8A\L
8A\J
8E\L
8E\J
=27
8A\L
8A\J
8A\L
8A\J
8E\L
8E\J
=28
8A\L
8A\J
8.A\L
16A\Jk
8E\L
16E\Jk
16r
=29
16B\LK
8.B\J
8.A\L
16A\Jk
8A\L
8B\J
=30
*M2/4
8B\L
8A\J
8B\L
8A\J
=31
12E\L
12E\
12E\J
8E\L
8E\J
=32
*M3/4
8B\L
8B\J
8B\L
8A\J
8E\L
8E\J
=33
*M2/4
8A\L
8A\J
8.A\L
16A\Jk
=34
8E\L
8E\J
8E\L
8E\J
=35
*M3/4
8C#/L
8E/J
8E\
8r
8e\L
8e\J
=36:|!
*M2/4
8C#/L
8E/J
8E\
8r
=37
!!pagebreak:default
8A\L
8A\J
8E\L
8A\J
=38
*M3/4
8E\L
8E\J
8E\L
8E\J
8E\
8r
=39
16F#\LL
16E\J
8E\J
8E\L
8E\J
8E\L
8E\J
==
*-
